icons/wallet-two-color.svg

<?xml version="1.0" encoding="UTF-8"?><svg xmlns="http://www.w3.org/2000/svg" viewBox="0 0 50 50"><g id="uuid-aa84d1d5-afa6-45a5-a4f0-4e0089895b32"><g><path d="M26.26,33.57c0-1.98,1.61-3.6,3.6-3.6h14.69v-11.44H7.03v30.34H44.55v-11.7h-14.69c-1.98,0-3.6-1.61-3.6-3.6Z" fill="#ffcd00"/><path d="M45.57,14.32c-.1-.09-.22-.15-.37-.14l-5.9,.23L32.32,1.39c-.06-.12-.17-.21-.3-.24-.13-.04-.27-.02-.38,.04L5.41,15.76l-.66,.03s-.06,.01-.09,.02c-.03,0-.06,0-.09,.02-.02,.01-.04,.03-.07,.04-.03,.02-.06,.04-.09,.07h0s-.02,.05-.04,.07c-.02,.03-.04,.06-.06,.09-.01,.03-.01,.07-.02,.1,0,.03-.02,.05-.02,.08v31.34c0,.28,.22,.5,.5,.5H43.3c.23,0,.41-.15,.47-.36h1.45c.28,0,.5-.22,.5-.5V14.68c0-.14-.06-.27-.15-.36Zm-15.71,22.85c-1.98,0-3.6-1.61-3.6-3.6s1.61-3.6,3.6-3.6h14.85v7.2h-14.85ZM5.28,23.15v-6.36H42.8v6.36H5.28Zm27.93-7.36h-9.45c-.78-1.09-1.87-1.91-3.17-2.31-.71-.21-1.43-.29-2.14-.24l9.73-5.51c.89,1.21,2.46,1.71,3.84,1.22l2.43,4.54c-.72,.57-1.15,1.41-1.23,2.3Zm-16.79-.97c.75-.4,1.57-.61,2.39-.61,.49,0,.99,.07,1.48,.22,.85,.26,1.58,.73,2.17,1.35h-4.76c-.13-.26-.43-.35-.68-.22-.09,.05-.16,.13-.2,.22h-1.64c.36-.37,.76-.71,1.24-.97Zm22.48,.97h-4.68c.09-.7,.48-1.34,1.12-1.71,.23-.14,.32-.43,.19-.67l-2.86-5.34c-.13-.24-.43-.33-.68-.2-1.14,.61-2.59,.14-3.22-1.04-.06-.12-.17-.21-.3-.24-.13-.04-.27-.02-.39,.05L11.89,15.79H7.42L31.68,2.31l7.22,13.48ZM5.28,24.15H42.8v4.82h-12.94c-2.54,0-4.6,2.06-4.6,4.6s2.06,4.6,4.6,4.6h12.94v8.95H5.28V24.15ZM44.72,15.2v13.77h-.92v-12.69c0-.28-.22-.5-.5-.5h-3.27l-.21-.39,4.9-.19Zm-.92,31.56v-8.6h.92v8.6h-.92Z"/><polygon points="28.97 13.49 28.52 13.72 28.53 13.72 28.97 13.49"/><path d="M28.53,14.72c.16,0,.32-.04,.47-.12,.48-.26,.67-.86,.41-1.35h0c-.26-.49-.87-.67-1.35-.41-.23,.13-.41,.34-.48,.59s-.05,.52,.08,.76c.18,.33,.52,.53,.88,.53Zm.44-1.23l-.44,.24h0l.44-.24Z"/><path d="M30.62,31.6c-1.09,0-1.97,.88-1.97,1.97s.88,1.97,1.97,1.97,1.97-.88,1.97-1.97-.88-1.97-1.97-1.97Z" fill="#ffcd00"/><rect x="44.55" y="29.97" width=".16" height="7.2"/><path d="M30.62,32.6c-.54,0-.97,.44-.97,.97s.44,.97,.97,.97,.97-.44,.97-.97-.44-.97-.97-.97Z"/><path d="M30.62,31.6c-1.09,0-1.97,.88-1.97,1.97s.88,1.97,1.97,1.97,1.97-.88,1.97-1.97-.88-1.97-1.97-1.97Zm0,2.94c-.54,0-.97-.44-.97-.97s.44-.97,.97-.97,.97,.44,.97,.97-.44,.97-.97,.97Z"/></g></g><g id="uuid-91140aca-9466-4f74-af22-64810320a9a5"><text transform="translate(.06 55.08)" font-family="Roboto-Regular, Roboto" font-size="6"><tspan x="0" y="0">wallet</tspan></text></g></svg>

<svg xmlns="http://www.w3.org/2000/svg" viewBox="0 0 50 50"><g id="a4fbbff5-f28c-4ce3-8c8a-9e997a837401" data-name="ICONS"><path d="M26.26,33.57a3.61,3.61,0,0,1,3.6-3.6H44.55V18.54H7V48.87H44.55V37.17H29.86A3.6,3.6,0,0,1,26.26,33.57Z" fill="#fdd600"/><path d="M45.57,14.32a.49.49,0,0,0-.37-.14l-5.9.24-7-13a.5.5,0,0,0-.68-.2L5.41,15.76l-.65,0-.09,0-.1,0-.06.05-.09.06h0l0,.06-.06.1s0,.06,0,.1,0,.05,0,.08V47.62a.5.5,0,0,0,.5.5H43.3a.49.49,0,0,0,.47-.35h1.45a.5.5,0,0,0,.5-.5V14.68A.51.51,0,0,0,45.57,14.32ZM29.86,37.17a3.6,3.6,0,1,1,0-7.2H44.72v7.2Zm-24.58-14V16.79H42.8v6.36ZM33.2,15.79H23.75a6,6,0,0,0-5.32-2.55l9.73-5.51A3.41,3.41,0,0,0,32,9l2.43,4.54A3.32,3.32,0,0,0,33.2,15.79Zm-16.78-1a5,5,0,0,1,6,1H17.71v0a.51.51,0,0,0-.68-.2.47.47,0,0,0-.2.22H15.18A5.17,5.17,0,0,1,16.42,14.82Zm22.48,1H34.22a2.29,2.29,0,0,1,1.12-1.71.5.5,0,0,0,.19-.67L32.67,8.07a.5.5,0,0,0-.68-.2,2.4,2.4,0,0,1-3.22-1,.48.48,0,0,0-.3-.24.53.53,0,0,0-.39,0L11.89,15.79H7.42L31.68,2.31ZM5.28,24.15H42.8V29H29.86a4.6,4.6,0,0,0,0,9.2H42.8v8.95H5.28ZM44.72,15.2V29H43.8V16.29a.5.5,0,0,0-.5-.5H40l-.2-.39ZM43.8,46.77v-8.6h.92v8.6Z" fill="#231f20"/><polygon points="28.96 13.48 28.52 13.72 28.53 13.72 28.96 13.48" fill="#231f20"/><path d="M28.53,14.72A1,1,0,0,0,29,14.6a1,1,0,0,0,.41-1.35h0a1,1,0,0,0-1.35-.41,1,1,0,0,0-.49.59,1,1,0,0,0,.08.76A1,1,0,0,0,28.53,14.72ZM29,13.49l-.44.23h0Z" fill="#231f20"/><path d="M30.62,31.6a2,2,0,1,0,2,2A2,2,0,0,0,30.62,31.6Z" fill="#fdd600"/><rect x="44.55" y="29.97" width="0.16" height="7.2" fill="#231f20"/><path d="M30.62,32.6a1,1,0,0,0,0,1.94,1,1,0,0,0,0-1.94Z" fill="#231f20"/><path d="M30.62,31.6a2,2,0,1,0,2,2A2,2,0,0,0,30.62,31.6Zm0,2.94a1,1,0,1,1,1-1A1,1,0,0,1,30.62,34.54Z" fill="#231f20"/></g><g id="bef4a332-ae93-4a84-a5e7-cc4da295cab1" data-name="LABELS"><text transform="translate(0.06 55.08)" font-size="6" fill="#231f20" font-family="Roboto-Regular, Roboto">wallet</text></g></svg>
